Adwaita++/actions/22/account-types-cash.svg

<svg height="22" width="22" xmlns="http://www.w3.org/2000/svg">
  <path d="m10.5 3a7.5 7.5 0 0 0 -7.5 7.5 7.5 7.5 0 0 0 7.5 7.5 7.5 7.5 0 0 0 7.5-7.5 7.5 7.5 0 0 0 -7.5-7.5zm-.460938 1h1.017579v1.3847656c.562219.021216 1.073156.085327 1.529297.1914063.466747.1060791.889599.2373656 1.271484.3964843l-.429688 1.1777344c-.339453-.1379028-.715197-.2541381-1.128906-.3496094-.403101-.1060791-.817871-.1752075-1.242187-.2070312v3.197266c.700122.20155 1.285204.418969 1.751953.652343.466748.222766.815454.504297 1.048828.84375.243982.328846.367187.758667.367187 1.289063 0 .742554-.276513 1.347705-.828125 1.814453-.551611.456141-1.332091.737671-2.339843.84375v1.765625h-1.017579v-1.703125c-.5834348-.010608-1.1515129-.057715-1.7031245-.142578-.5516116-.095471-.9964842-.223694-1.3359375-.382813v-1.351562c.3606691.169727.8225461.318018 1.3847656.445312.5622196.127296 1.1132932.196424 1.6542964.207032v-3.214844c-1.0501831-.286413-1.818676-.647107-2.3066401-1.082031-.4879641-.434925-.7324219-1.0280885-.7324219-1.7812504 0-.7849857.2695432-1.4001706.8105469-1.8457031.5516116-.4455324 1.2950191-.6950073 2.2285151-.7480469zm0 2.625c-.572827.0424317-.9976313.1756713-1.273437.3984375-.2651979.2227663-.3964844.5093138-.3964844.859375 0 .4243166.1162353.752954.3496094.9863281.2439821.2227664.6838376.4131474 1.320312.5722654zm1.017579 4.566406v2.800782c.625866-.06365 1.082726-.206921 1.36914-.429688.286414-.233375.429688-.529956.429688-.890625 0-.403101-.12627-.704699-.38086-.90625s-.728454-.393885-1.417968-.574219z" fill="#444"/>
</svg>

<svg xmlns="http://www.w3.org/2000/svg" width="22" height="22" version="1.1">
 <defs>
  <style id="current-color-scheme" type="text/css">
   .ColorScheme-Text { color:#444444; } .ColorScheme-Highlight { color:#4285f4; }
  </style>
 </defs>
 <path style="fill:currentColor" class="ColorScheme-Text" d="M 10.5,3 A 7.5,7.5 0 0 0 3,10.5 7.5,7.5 0 0 0 10.5,18 7.5,7.5 0 0 0 18,10.5 7.5,7.5 0 0 0 10.5,3 Z m -0.460938,1 h 1.017579 v 1.3847656 c 0.562219,0.021216 1.073156,0.085327 1.529297,0.1914063 0.466747,0.1060791 0.889599,0.2373656 1.271484,0.3964843 L 13.427734,7.1503906 C 13.088281,7.0124878 12.712537,6.8962525 12.298828,6.8007812 11.895727,6.6947021 11.480957,6.6255737 11.056641,6.59375 v 3.197266 c 0.700122,0.20155 1.285204,0.418969 1.751953,0.652343 0.466748,0.222766 0.815454,0.504297 1.048828,0.84375 0.243982,0.328846 0.367187,0.758667 0.367187,1.289063 0,0.742554 -0.276513,1.347705 -0.828125,1.814453 -0.551611,0.456141 -1.332091,0.737671 -2.339843,0.84375 V 17 H 10.039062 V 15.296875 C 9.4556272,15.286267 8.8875491,15.23916 8.3359375,15.154297 7.7843259,15.058826 7.3394533,14.930603 7,14.771484 v -1.351562 c 0.3606691,0.169727 0.8225461,0.318018 1.3847656,0.445312 0.5622196,0.127296 1.1132932,0.196424 1.6542964,0.207032 V 10.857422 C 8.9888789,10.571009 8.220386,10.210315 7.7324219,9.775391 7.2444578,9.340466 7,8.7473025 7,7.9941406 7,7.2091549 7.2695432,6.59397 7.8105469,6.1484375 8.3621585,5.7029051 9.105566,5.4534302 10.039062,5.4003906 Z m 0,2.625 C 9.466235,6.6674317 9.0414307,6.8006713 8.765625,7.0234375 8.5004271,7.2462038 8.3691406,7.5327513 8.3691406,7.8828125 c 0,0.4243166 0.1162353,0.752954 0.3496094,0.9863281 0.2439821,0.2227664 0.6838376,0.4131474 1.320312,0.5722654 z m 1.017579,4.566406 v 2.800782 c 0.625866,-0.06365 1.082726,-0.206921 1.36914,-0.429688 0.286414,-0.233375 0.429688,-0.529956 0.429688,-0.890625 0,-0.403101 -0.12627,-0.704699 -0.38086,-0.90625 -0.25459,-0.201551 -0.728454,-0.393885 -1.417968,-0.574219 z"/>
</svg>
